X: 3676
T: Billy Brocker's
R: reel
M: 4/4
K: Dmajor
A~F3 AFdB|ADFA ~G3B|A~F3 ABde|f2eg fddB|
A~F3 AFdB|A~F3 G3B|A2FA ABde|fAeA fd d2|
dz df a3f|eA (3cBA eA (3cBA|dedf a3g|gaeg fd d2|
dz df a3f|eA (3cBA eA (3cBA|f3a g2fg|a2ge fddB|

